Hatter-kde/actions/24/labplot-xy-fit-curve.svg

<svg xmlns="http://www.w3.org/2000/svg" viewBox="0 0 24 24">
  <defs id="defs3051">
    <style type="text/css" id="current-color-scheme">
      .ColorScheme-Text {
        color:#363636;
      }
      .ColorScheme-Highlight {
        color:#3daee9;
      }
      </style>
  </defs><g transform="translate(1,1)">
 <path 
     style="fill:currentColor;fill-opacity:1;stroke:none" 
     d="M 18.662109 3.6308594 L 8 13.404297 L 8 14 L 8.8300781 14 L 19.337891 4.3691406 L 18.662109 3.6308594 z "
     class="ColorScheme-Highlight"
     />
 <path 
     style="fill:currentColor;fill-opacity:1;stroke:none" 
     d="M 4 3 L 4 17 L 3 17 L 3 18 L 4 18 L 4 19 L 5 19 L 5 18 L 19 18 L 19 17 L 5 17 L 5 3 L 4 3 z M 11.478516 4 L 11.478516 5 L 12.478516 5 L 12.478516 4 L 11.478516 4 z M 12.478516 5 L 12.478516 6 L 13.478516 6 L 13.478516 5 L 12.478516 5 z M 12.478516 6 L 11.478516 6 L 11.478516 7 L 12.478516 7 L 12.478516 6 z M 11.478516 6 L 11.478516 5 L 10.478516 5 L 10.478516 6 L 11.478516 6 z M 17 8 L 17 9 L 18 9 L 18 8 L 17 8 z M 18 9 L 18 10 L 19 10 L 19 9 L 18 9 z M 18 10 L 17 10 L 17 11 L 18 11 L 18 10 z M 17 10 L 17 9 L 16 9 L 16 10 L 17 10 z M 13 11 L 13 12 L 14 12 L 14 11 L 13 11 z M 14 12 L 14 13 L 15 13 L 15 12 L 14 12 z M 14 13 L 13 13 L 13 14 L 14 14 L 14 13 z M 13 13 L 13 12 L 12 12 L 12 13 L 13 13 z M 7 13 L 7 14 L 8 14 L 8 13 L 7 13 z M 8 14 L 8 15 L 9 15 L 9 14 L 8 14 z M 8 15 L 7 15 L 7 16 L 8 16 L 8 15 z M 7 15 L 7 14 L 6 14 L 6 15 L 7 15 z "
     class="ColorScheme-Text"
     />
</g></svg>

<?xml version="1.0" encoding="UTF-8"?>
<svg viewBox="0 0 24 24" xmlns="http://www.w3.org/2000/svg">
 <defs id="defs3051">
  <style id="current-color-scheme" type="text/css">.ColorScheme-Text {
        color:#363636;
      }
      .ColorScheme-Highlight {
        color:#3daee9;
      }</style>
 </defs>
 <g transform="translate(1,1)" fill="currentColor">
  <path class="ColorScheme-Highlight" d="m18.662 3.6309-10.662 9.7734v0.5957h0.83008l10.508-9.6309-0.67578-0.73828z"/>
  <path class="ColorScheme-Text" d="m4 3v14h-1v1h1v1h1v-1h14v-1h-14v-14h-1zm7.4785 1v1h1v-1h-1zm1 1v1h1v-1h-1zm0 1h-1v1h1v-1zm-1 0v-1h-1v1h1zm5.5215 2v1h1v-1h-1zm1 1v1h1v-1h-1zm0 1h-1v1h1v-1zm-1 0v-1h-1v1h1zm-4 1v1h1v-1h-1zm1 1v1h1v-1h-1zm0 1h-1v1h1v-1zm-1 0v-1h-1v1h1zm-6 0v1h1v-1h-1zm1 1v1h1v-1h-1zm0 1h-1v1h1v-1zm-1 0v-1h-1v1h1z"/>
 </g>
</svg>
